icons/svg/soccer.svg

﻿<?xml version="1.0" encoding="utf-8"?>
<!DOCTYPE svg PUBLIC "-//W3C//DTD SVG 1.1//EN" "http://www.w3.org/Graphics/SVG/1.1/DTD/svg11.dtd">
<svg xmlns="http://www.w3.org/2000/svg" xmlns:xlink="http://www.w3.org/1999/xlink" version="1.1" baseProfile="full" width="24" height="24" viewBox="0 0 24.00 24.00" enable-background="new 0 0 24.00 24.00" xml:space="preserve">
	<path fill="#000000" fill-opacity="1" stroke-width="1.33333" stroke-linejoin="miter" d="M 12,2C 6.47715,2 2,6.4772 2,12C 2,17.5228 6.47715,22 12,22C 17.5228,22 22,17.5228 22,12C 22,6.4772 17.5228,2 12,2 Z M 12,3C 13.7621,3 15.3964,3.5273 16.7813,4.4062L 16.5,5L 13,5L 12,5L 10.2813,4.1562L 10.625,3.125C 11.0754,3.0547 11.5293,3 12,3 Z M 9.53125,3.375L 9.1875,4.4062L 6.625,5.6875L 5.375,5.9375C 6.48138,4.7288 7.91705,3.8424 9.53125,3.375 Z M 13,6L 16,6L 18.6875,9.5937L 17.4375,12.1562L 14.8125,12.7812L 11.5313,8.9375L 13,6 Z M 6.15625,6.6562L 7,10L 5.78125,13.0625L 3.21875,13.9375C 3.08162,13.313 3,12.6657 3,12C 3,10.1047 3.59325,8.3567 4.59375,6.9062L 6.15625,6.6562 Z M 20.5625,9.2187C 20.8485,10.0915 21,11.0308 21,12C 21,13.443 20.6349,14.7912 20.0313,16L 19,16L 18.1563,12.6562L 19.6563,9.6562L 20.5625,9.2187 Z M 8,10L 11,10L 13.8125,13.2812L 12,16L 8.84375,16.7812L 6.53125,13.6875L 8,10 Z M 12,17L 15,19L 14.125,20.7187C 13.4423,20.8843 12.7336,21 12,21C 10.2511,21 8.63134,20.4881 7.25,19.625L 8.40625,17.9062L 12,17 Z M 19,17L 19.5,17C 18.4919,18.5075 17.0207,19.6656 15.3125,20.3437L 16,19L 19,17 Z "/>
</svg>

<svg xmlns="http://www.w3.org/2000/svg" version="1.1" baseProfile="full" width="24" height="24" viewBox="0 0 24.00 24.00" xml:space="preserve"><path fill="#000" fill-opacity="1" stroke-width="1.333" stroke-linejoin="miter" d="M12 2C6.477 2 2 6.477 2 12s4.477 10 10 10 10-4.477 10-10S17.523 2 12 2zm0 1c1.762 0 3.396.527 4.78 1.406L16.5 5H12l-1.72-.844.345-1.03C11.075 3.055 11.53 3 12 3zm-2.47.375l-.342 1.03-2.563 1.282-1.25.25C6.48 4.73 7.917 3.842 9.53 3.376zM13 6h3l2.688 3.594-1.25 2.562-2.625.625L11.53 8.94 13 6zm-6.844.656L7 10l-1.22 3.063-2.56.874C3.08 13.313 3 12.668 3 12c0-1.895.593-3.643 1.594-5.094l1.562-.25zM20.563 9.22c.286.87.437 1.81.437 2.78 0 1.443-.365 2.79-.97 4H19l-.844-3.344 1.5-3 .907-.437zM8 10h3l2.813 3.28L12 16l-3.156.78-2.313-3.093L8 10zm4 7l3 2-.875 1.72c-.683.164-1.39.28-2.125.28-1.75 0-3.37-.512-4.75-1.375l1.156-1.72L12 17zm7 0h.5c-1.008 1.508-2.48 2.666-4.188 3.344L16 19l3-2z"/></svg>
